brandFactory_export/2.Regular/Saldo_2Regular.svg

<?xml version="1.0" encoding="UTF-8"?>
<svg width="24px" height="24px" viewBox="0 0 24 24" version="1.1" xmlns="http://www.w3.org/2000/svg" xmlns:xlink="http://www.w3.org/1999/xlink">
    <title>2.Regular/Saldo_2Regular</title>
    <g id="Symbols" stroke="none" stroke-width="1" fill="none" fill-rule="evenodd">
        <g id="2.Regular/Saldo_2Regular" fill="#5CB615" fill-rule="nonzero">
            <path d="M13.1983193,-6.21724894e-13 C13.3697479,-6.21724894e-13 13.5378151,0.0672268908 13.6621849,0.18487395 L20.2168067,6.40336134 C20.3512605,6.53109244 20.4252101,6.70588235 20.4252101,6.8907563 L20.4252101,22.302521 C20.4252101,23.0084034 19.8033613,23.6302521 19.097479,23.6302521 L4.34117647,23.6302521 C3.63529412,23.6302521 3.01344538,23.0084034 3.01344538,22.302521 L3.01344538,1.32773109 C3.01344538,0.645378151 3.65882353,-6.21724894e-13 4.34117647,-6.21724894e-13 L13.1983193,-6.21724894e-13 Z M12.1894454,1.344 L4.38487395,1.34453782 C4.37478992,1.3512605 4.36470588,1.36134454 4.35798319,1.37142857 L4.35798319,22.2722689 C4.36134454,22.2756303 4.36806723,22.2823529 4.37478992,22.2857143 L19.0739496,22.2857143 L19.0806723,22.2789916 L19.0804454,8.218 L16.1394958,8.21848739 C14.9932773,8.21848739 14.005042,7.83865546 13.2890756,7.11932773 C12.5731092,6.4 12.189916,5.41512605 12.189916,4.26890756 L12.1894454,1.344 Z M15.2084034,12.9243697 C15.487395,12.9243697 15.712605,13.1495798 15.712605,13.4285714 L15.7128606,13.7838078 C16.1491824,13.842144 16.5534143,13.9777671 16.8823529,14.1815126 C17.1310924,14.3327731 17.1680672,14.5344538 17.1680672,14.6420168 C17.1680672,14.9109244 16.9495798,15.1294118 16.6806723,15.1294118 C16.5798319,15.1260504 16.4823529,15.0991597 16.3915966,15.0487395 L16.3848739,15.0453782 C16.1566427,14.920714 15.9360716,14.834351 15.7131704,14.7831671 L15.7124454,16.57 L15.7654854,16.5785925 C17.2103922,16.8320948 17.5210084,17.6989404 17.5210084,18.3966387 C17.5210084,18.9815126 17.3058824,19.4756303 16.902521,19.8252101 C16.5963482,20.0943459 16.1922329,20.2673531 15.7141571,20.3402346 L15.712605,20.7058824 C15.712605,20.9848739 15.487395,21.210084 15.2084034,21.210084 C14.9294118,21.210084 14.7042017,20.9848739 14.7042017,20.7058824 L14.7043625,20.3451539 C14.1644647,20.2691008 13.6480775,20.0696666 13.194958,19.7579832 C13.0369748,19.6470588 12.9563025,19.4991597 12.9563025,19.3142857 C12.9596639,19.0386555 13.1848739,18.8168067 13.4605042,18.8168067 C13.5747899,18.8201681 13.6890756,18.8571429 13.7831933,18.9210084 C14.0896218,19.1245798 14.3974165,19.2639459 14.7039646,19.3382357 L14.7020751,17.4443088 C13.3903029,17.1668538 13.1042017,16.3409291 13.1042017,15.6739496 C13.1042017,14.6720885 13.7167495,13.9727814 14.7032694,13.7954326 L14.7042017,13.4285714 C14.7042017,13.1495798 14.9294118,12.9243697 15.2084034,12.9243697 Z M10.4117647,11.1798319 C10.7815126,11.1798319 11.0840336,11.4823529 11.0840336,11.8521008 L11.0840336,20.3193277 C11.0840336,20.692437 10.7848739,20.9915966 10.4117647,20.9915966 C10.0420168,20.9915966 9.7394958,20.6890756 9.7394958,20.3193277 L9.7394958,11.8521008 C9.7394958,11.4823529 10.0420168,11.1798319 10.4117647,11.1798319 Z M7.10084034,5.91932773 C7.47058824,5.91932773 7.77310924,6.22184874 7.77310924,6.59159664 L7.77310924,20.302521 C7.77310924,20.6722689 7.47058824,20.9747899 7.10084034,20.9747899 C6.73109244,20.9747899 6.42857143,20.6722689 6.42857143,20.302521 L6.42857143,6.59159664 C6.42857143,6.22184874 6.73109244,5.91932773 7.10084034,5.91932773 Z M15.7150146,17.6061455 L15.7140301,19.3469228 C16.2162244,19.2234549 16.512605,18.8977574 16.512605,18.4369748 C16.512605,18.1036776 16.4069956,17.7777486 15.7150146,17.6061455 Z M14.1092437,15.6268908 C14.1092437,15.9060482 14.1927246,16.2011067 14.7035869,16.3836769 L14.7034646,14.7995525 C14.3236087,14.9274241 14.1092437,15.2169226 14.1092437,15.6268908 Z M18.7574454,6.873 L13.5344454,1.919 L13.5344538,4.26890756 C13.5344538,5.05210084 13.7798319,5.70756303 14.2403361,6.16806723 C14.7008403,6.62857143 15.3596639,6.87394958 16.1394958,6.87394958 L18.7574454,6.873 Z" id="Saldo_2Regular"></path>
        </g>
    </g>
</svg>

<svg width="24" height="24" viewBox="0 0 24 24" xmlns="http://www.w3.org/2000/svg"><path d="M13.198 0a.68.68 0 01.464.185l6.555 6.218a.669.669 0 01.208.488v15.412c0 .705-.622 1.327-1.328 1.327H4.341c-.706 0-1.328-.622-1.328-1.327V1.328C3.013.645 3.66 0 4.341 0h8.857zM12.19 1.344H4.385a.102.102 0 00-.027.027v20.901c.003.004.01.01.017.014h14.699l.007-.007V8.218h-2.942c-1.146 0-2.134-.38-2.85-1.099-.716-.719-1.1-1.704-1.1-2.85V1.344zm3.02 11.58c.278 0 .504.226.504.505v.355c.436.058.84.194 1.17.398.248.15.285.352.285.46a.488.488 0 01-.487.487.634.634 0 01-.29-.08l-.006-.004a2.615 2.615 0 00-.672-.262v1.787l.052.009c1.445.253 1.756 1.12 1.756 1.818 0 .585-.215 1.079-.618 1.428-.307.27-.71.442-1.189.515l-.001.366a.504.504 0 11-1.009 0v-.36a3.53 3.53 0 01-1.509-.588.518.518 0 01-.239-.444.504.504 0 01.505-.497c.114.003.228.04.322.104.307.204.614.343.921.417l-.002-1.894c-1.312-.277-1.598-1.103-1.598-1.77 0-1.002.613-1.701 1.6-1.879v-.366c0-.28.225-.505.504-.505zm-4.797-1.744c.37 0 .672.302.672.672v8.467a.67.67 0 01-.672.673.674.674 0 01-.673-.673v-8.467c0-.37.303-.672.673-.672zM7.1 5.92c.37 0 .672.302.672.672v13.71c0 .37-.302.673-.672.673a.674.674 0 01-.672-.672V6.592c0-.37.302-.673.672-.673zm8.614 11.686l-.001 1.74c.502-.123.799-.448.799-.909 0-.333-.106-.66-.798-.83zm-1.606-1.98c0 .28.084.575.595.758V14.8c-.38.127-.595.417-.595.827zm4.648-8.753l-5.223-4.954v2.35c0 .783.246 1.439.706 1.9.46.46 1.12.705 1.9.705l2.617-.001z" fill="#5CB615" fill-rule="nonzero"/></svg>
